X: 36
T: Zhenxin xiangai jie lianli
L: 1/8
M: 2/4
K: C
c3c [I:setbarnb 1]| 
c3d | 
e> g e d | 
c3e | 
d> c A G | 
E2C C | 
c> c A c | 
G4- | 
G4 | 
A3G | 
c2e3/ d/ | 
c> d A G | 
cE2D | 
C3D | 
E> D G G | 
A G D E | 
C4- | 
C4 |]

@@@ Tune index: 8704
